!!!OTL: WER WOLLTE SICH MIT GRILLEN PLAGEN
!!!ARE: Europa, Mitteleuropa, Deutschland
!!!SCT: F0353
!!!YEM: Copyright 1995, estate of Helmut Schaffrath.
**kern
*ICvox
*Ivox
*M3/8
*k[f#c#]
*D:
{8A
=1
8.d
16c#
8B
=2
4A
8F#
=3
4G
8A
=4
8F#
8D}
{16G
16F#
=5
4F#
16d
16c#
=6
4c#
16e
16d
=7
8c#
8A
16G#
16A
=8
4A}
{8A
=9
8.d
16c#
8B
=10
4A
8F#
=11
4G
8A
=12
8F#
8D}
{16G
16F#
=13
4F#
16d
16c#
=14
4c#
16e
16d
=15
8c#
8A
16G#
16A
=16
4A}
{8A
=17
8.c#
16B
8c#
=18
4d
8A
=19
8A
8G
8F#
=20
8F#
8E}
{8A
=21
8.c#
16B
8c#
=22
4d
8F#
=23
8G#
8F#
8G#
=24
4A}
{8A
=25
8e
16d
16c#
16B
16c#
=26
4d
8d
=27
16d#
16e
16d
16c#
16B
16A
=28
8A
8d}
{8cn
=29
4B
8c#
=30
4d
8e
=31
8.c#
16B
8c#
=32
4d}
==
!!!AGN: Jugend - Lied, Belehrung
!!!ONB: ESAC (Essen Associative Code) Database: FINK
!!!AMT: simple triple
!!!AIN: vox
!!!EED: Helmut Schaffrath
!!!EEV: 1.0
*-
